X: 28646
T: Musical Priest
R: jig
M: 6/8
K: Aminor
EAA ABc|BGB dBG|EAA ABc|1 BGB A2G:|2 BGB A2B||
|:c3 cde|dBG dBG|c3 cde|dBG A2B:|
|:cAA age|ged ede|cAA age|1 gdB A2B:|2 dBG A3||

